assets/features/channel/europe-and-america/apple.svg

<svg width="80" height="80" viewBox="0 0 80 80" fill="none" xmlns="http://www.w3.org/2000/svg">
<rect width="80" height="80" rx="8" fill="#010101"/>
<path d="M51.2723 38.0605C51.3393 44.1127 56.7663 46.1226 56.8109 46.145C56.7663 46.279 55.9399 49.0259 53.9523 51.8398C52.2326 54.2741 50.446 56.7083 47.632 56.753C44.8627 56.7977 43.9693 55.1674 40.8204 55.1674C37.649 55.1674 36.6664 56.7083 34.0534 56.7977C31.3287 56.887 29.2741 54.1624 27.5321 51.7281C23.9811 46.7703 21.2788 37.7032 24.9191 31.5841C26.7281 28.5468 29.9664 26.6262 33.4727 26.5592C36.1304 26.5145 38.654 28.3011 40.2844 28.3011C41.9147 28.3011 44.9743 26.1572 48.1903 26.4699C49.5303 26.5145 53.3269 27.0058 55.7389 30.4451C55.5379 30.5567 51.2276 32.991 51.2723 38.0605ZM46.0687 23.187C47.5203 21.4897 48.4806 19.1447 48.2126 16.7998C46.1357 16.8891 43.612 18.1398 42.138 19.8371C40.798 21.3333 39.6367 23.7229 39.9494 26.0232C42.272 26.2019 44.6393 24.8842 46.0687 23.187Z" fill="white"/>
</svg>

<svg xmlns="http://www.w3.org/2000/svg" width="80" height="80" fill="none" viewBox="0 0 80 80"><rect width="80" height="80" fill="#010101" rx="8"/><path fill="#fff" d="M51.272 38.06c.067 6.053 5.494 8.063 5.539 8.085-.045.134-.871 2.88-2.859 5.695-1.72 2.434-3.506 4.868-6.32 4.913-2.77.045-3.663-1.586-6.812-1.586-3.171 0-4.154 1.541-6.767 1.63-2.724.09-4.779-2.635-6.52-5.069-3.552-4.958-6.254-14.025-2.614-20.144 1.81-3.037 5.047-4.958 8.554-5.025 2.657-.044 5.181 1.742 6.811 1.742s4.69-2.144 7.906-1.831c1.34.045 5.137.536 7.549 3.975-.201.112-4.511 2.546-4.467 7.615M46.07 23.188c1.451-1.697 2.412-4.042 2.144-6.387-2.077.09-4.601 1.34-6.075 3.037-1.34 1.496-2.501 3.886-2.189 6.186 2.323.179 4.69-1.139 6.12-2.836"/></svg>
